static/img/kroki/8901bf46fb8429e18fc51c1e7f9d2ea2.svg

<?xml version="1.0" encoding="us-ascii" standalone="no"?><svg xmlns="http://www.w3.org/2000/svg" xmlns:xlink="http://www.w3.org/1999/xlink" contentStyleType="text/css" height="152px" preserveAspectRatio="none" style="width:1652px;height:152px;" version="1.1" viewBox="0 0 1652 152" width="1652px" zoomAndPan="magnify"><defs/><g><!--class azure_network_bastion_host--><g id="elem_azure_network_bastion_host"><rect codeLine="23" fill="#3D176E" height="39.7891" id="azure_network_bastion_host" rx="2.5" ry="2.5" style="stroke:#000D19;stroke-width:0.5;" width="282" x="7" y="7"/><ellipse cx="22" cy="26.8945" fill="#ADD1B2" rx="11" ry="11" style="stroke:#181818;stroke-width:1.0;"/><path d="M24.9688,32.5352 Q24.3906,32.832 23.75,32.9727 Q23.1094,33.1289 22.4063,33.1289 Q19.9063,33.1289 18.5781,31.4883 Q17.2656,29.832 17.2656,26.707 Q17.2656,23.582 18.5781,21.9258 Q19.9063,20.2695 22.4063,20.2695 Q23.1094,20.2695 23.75,20.4258 Q24.4063,20.582 24.9688,20.8789 L24.9688,23.5977 Q24.3438,23.0195 23.75,22.7539 Q23.1563,22.4727 22.5313,22.4727 Q21.1875,22.4727 20.5,23.5508 Q19.8125,24.6133 19.8125,26.707 Q19.8125,28.8008 20.5,29.8789 Q21.1875,30.9414 22.5313,30.9414 Q23.1563,30.9414 23.75,30.6758 Q24.3438,30.3945 24.9688,29.8164 L24.9688,32.5352 Z " fill="#000000"/><text fill="#D9B8FF" font-family="Helvetica" font-size="17" lengthAdjust="spacing" textLength="240" x="41" y="32.7798">azure_network_bastion_host</text></g><!--class azure_network_ddos_protection_plan--><g id="elem_azure_network_ddos_protection_plan"><rect codeLine="26" fill="#3D176E" height="39.7891" id="azure_network_ddos_protection_plan" rx="2.5" ry="2.5" style="stroke:#000D19;stroke-width:0.5;" width="353" x="324.5" y="7"/><ellipse cx="339.5" cy="26.8945" fill="#ADD1B2" rx="11" ry="11" style="stroke:#181818;stroke-width:1.0;"/><path d="M342.4688,32.5352 Q341.8906,32.832 341.25,32.9727 Q340.6094,33.1289 339.9063,33.1289 Q337.4063,33.1289 336.0781,31.4883 Q334.7656,29.832 334.7656,26.707 Q334.7656,23.582 336.0781,21.9258 Q337.4063,20.2695 339.9063,20.2695 Q340.6094,20.2695 341.25,20.4258 Q341.9063,20.582 342.4688,20.8789 L342.4688,23.5977 Q341.8438,23.0195 341.25,22.7539 Q340.6563,22.4727 340.0313,22.4727 Q338.6875,22.4727 338,23.5508 Q337.3125,24.6133 337.3125,26.707 Q337.3125,28.8008 338,29.8789 Q338.6875,30.9414 340.0313,30.9414 Q340.6563,30.9414 341.25,30.6758 Q341.8438,30.3945 342.4688,29.8164 L342.4688,32.5352 Z " fill="#000000"/><text fill="#D9B8FF" font-family="Helvetica" font-size="17" lengthAdjust="spacing" textLength="311" x="358.5" y="32.7798">azure_network_ddos_protection_plan</text></g><!--class azure_network_nat_gateway--><g id="elem_azure_network_nat_gateway"><rect codeLine="29" fill="#3D176E" height="39.7891" id="azure_network_nat_gateway" rx="2.5" ry="2.5" style="stroke:#000D19;stroke-width:0.5;" width="285" x="712.5" y="7"/><ellipse cx="727.5" cy="26.8945" fill="#ADD1B2" rx="11" ry="11" style="stroke:#181818;stroke-width:1.0;"/><path d="M730.4688,32.5352 Q729.8906,32.832 729.25,32.9727 Q728.6094,33.1289 727.9063,33.1289 Q725.4063,33.1289 724.0781,31.4883 Q722.7656,29.832 722.7656,26.707 Q722.7656,23.582 724.0781,21.9258 Q725.4063,20.2695 727.9063,20.2695 Q728.6094,20.2695 729.25,20.4258 Q729.9063,20.582 730.4688,20.8789 L730.4688,23.5977 Q729.8438,23.0195 729.25,22.7539 Q728.6563,22.4727 728.0313,22.4727 Q726.6875,22.4727 726,23.5508 Q725.3125,24.6133 725.3125,26.707 Q725.3125,28.8008 726,29.8789 Q726.6875,30.9414 728.0313,30.9414 Q728.6563,30.9414 729.25,30.6758 Q729.8438,30.3945 730.4688,29.8164 L730.4688,32.5352 Z " fill="#000000"/><text fill="#D9B8FF" font-family="Helvetica" font-size="17" lengthAdjust="spacing" textLength="243" x="746.5" y="32.7798">azure_network_nat_gateway</text></g><!--class azure_network_public_ip_address--><g id="elem_azure_network_public_ip_address"><rect codeLine="32" fill="#3D176E" height="39.7891" id="azure_network_public_ip_address" rx="2.5" ry="2.5" style="stroke:#000D19;stroke-width:0.5;" width="321" x="694.5" y="106.79"/><ellipse cx="709.5" cy="126.6845" fill="#ADD1B2" rx="11" ry="11" style="stroke:#181818;stroke-width:1.0;"/><path d="M712.4688,132.3252 Q711.8906,132.622 711.25,132.7627 Q710.6094,132.9189 709.9063,132.9189 Q707.4063,132.9189 706.0781,131.2783 Q704.7656,129.622 704.7656,126.497 Q704.7656,123.372 706.0781,121.7158 Q707.4063,120.0595 709.9063,120.0595 Q710.6094,120.0595 711.25,120.2158 Q711.9063,120.372 712.4688,120.6689 L712.4688,123.3877 Q711.8438,122.8095 711.25,122.5439 Q710.6563,122.2627 710.0313,122.2627 Q708.6875,122.2627 708,123.3408 Q707.3125,124.4033 707.3125,126.497 Q707.3125,128.5908 708,129.6689 Q708.6875,130.7314 710.0313,130.7314 Q710.6563,130.7314 711.25,130.4658 Q711.8438,130.1845 712.4688,129.6064 L712.4688,132.3252 Z " fill="#000000"/><text fill="#D9B8FF" font-family="Helvetica" font-size="17" lengthAdjust="spacing" textLength="279" x="728.5" y="132.5698">azure_network_public_ip_address</text></g><!--class azure_network_public_ip_prefix--><g id="elem_azure_network_public_ip_prefix"><rect codeLine="35" fill="#3D176E" height="39.7891" id="azure_network_public_ip_prefix" rx="2.5" ry="2.5" style="stroke:#000D19;stroke-width:0.5;" width="306" x="1032" y="7"/><ellipse cx="1047" cy="26.8945" fill="#ADD1B2" rx="11" ry="11" style="stroke:#181818;stroke-width:1.0;"/><path d="M1049.9688,32.5352 Q1049.3906,32.832 1048.75,32.9727 Q1048.1094,33.1289 1047.4063,33.1289 Q1044.9063,33.1289 1043.5781,31.4883 Q1042.2656,29.832 1042.2656,26.707 Q1042.2656,23.582 1043.5781,21.9258 Q1044.9063,20.2695 1047.4063,20.2695 Q1048.1094,20.2695 1048.75,20.4258 Q1049.4063,20.582 1049.9688,20.8789 L1049.9688,23.5977 Q1049.3438,23.0195 1048.75,22.7539 Q1048.1563,22.4727 1047.5313,22.4727 Q1046.1875,22.4727 1045.5,23.5508 Q1044.8125,24.6133 1044.8125,26.707 Q1044.8125,28.8008 1045.5,29.8789 Q1046.1875,30.9414 1047.5313,30.9414 Q1048.1563,30.9414 1048.75,30.6758 Q1049.3438,30.3945 1049.9688,29.8164 L1049.9688,32.5352 Z " fill="#000000"/><text fill="#D9B8FF" font-family="Helvetica" font-size="17" lengthAdjust="spacing" textLength="264" x="1066" y="32.7798">azure_network_public_ip_prefix</text></g><!--class azure_network_virtual_hub--><g id="elem_azure_network_virtual_hub"><rect codeLine="38" fill="#3D176E" height="39.7891" id="azure_network_virtual_hub" rx="2.5" ry="2.5" style="stroke:#000D19;stroke-width:0.5;" width="272" x="1373" y="7"/><ellipse cx="1388" cy="26.8945" fill="#ADD1B2" rx="11" ry="11" style="stroke:#181818;stroke-width:1.0;"/><path d="M1390.9688,32.5352 Q1390.3906,32.832 1389.75,32.9727 Q1389.1094,33.1289 1388.4063,33.1289 Q1385.9063,33.1289 1384.5781,31.4883 Q1383.2656,29.832 1383.2656,26.707 Q1383.2656,23.582 1384.5781,21.9258 Q1385.9063,20.2695 1388.4063,20.2695 Q1389.1094,20.2695 1389.75,20.4258 Q1390.4063,20.582 1390.9688,20.8789 L1390.9688,23.5977 Q1390.3438,23.0195 1389.75,22.7539 Q1389.1563,22.4727 1388.5313,22.4727 Q1387.1875,22.4727 1386.5,23.5508 Q1385.8125,24.6133 1385.8125,26.707 Q1385.8125,28.8008 1386.5,29.8789 Q1387.1875,30.9414 1388.5313,30.9414 Q1389.1563,30.9414 1389.75,30.6758 Q1390.3438,30.3945 1390.9688,29.8164 L1390.9688,32.5352 Z " fill="#000000"/><text fill="#D9B8FF" font-family="Helvetica" font-size="17" lengthAdjust="spacing" textLength="230" x="1407" y="32.7798">azure_network_virtual_hub</text></g><!--link azure_network_bastion_host to azure_network_public_ip_address--><g id="link_azure_network_bastion_host_azure_network_public_ip_address"><path codeLine="41" d="M288.1,47.27 C411.79,64.38 585.2366,88.3679 708.9266,105.4779 " fill="none" id="azure_network_bastion_host-to-azure_network_public_ip_address" style="stroke:#1A83AF;stroke-width:2.0;"/><polygon fill="#1A83AF" points="714.87,106.3,706.503,101.1045,709.9172,105.6149,705.4068,109.029,714.87,106.3" style="stroke:#1A83AF;stroke-width:2.0;"/></g><!--link azure_network_ddos_protection_plan to azure_network_public_ip_address--><g id="link_azure_network_ddos_protection_plan_azure_network_public_ip_address"><path codeLine="42" d="M570.94,47.22 C632.9,64.33 717.1167,87.5921 779.1167,104.7221 " fill="none" id="azure_network_ddos_protection_plan-to-azure_network_public_ip_address" style="stroke:#1A83AF;stroke-width:2.0;"/><polygon fill="#1A83AF" points="784.9,106.32,777.2903,100.0676,780.0806,104.9884,775.1598,107.7787,784.9,106.32" style="stroke:#1A83AF;stroke-width:2.0;"/></g><!--link azure_network_nat_gateway to azure_network_public_ip_address--><g id="link_azure_network_nat_gateway_azure_network_public_ip_address"><path codeLine="43" d="M855,47.22 C855,64.36 855,83.27 855,100.41 " fill="none" id="azure_network_nat_gateway-to-azure_network_public_ip_address" style="stroke:#1A83AF;stroke-width:2.0;"/><polygon fill="#1A83AF" points="855,106.41,859,97.41,855,101.41,851,97.41,855,106.41" style="stroke:#1A83AF;stroke-width:2.0;"/></g><!--link azure_network_public_ip_prefix to azure_network_public_ip_address--><g id="link_azure_network_public_ip_prefix_azure_network_public_ip_address"><path codeLine="44" d="M1119.8,47.22 C1062.04,64.33 983.9028,87.4854 926.0928,104.6154 " fill="none" id="azure_network_public_ip_prefix-to-azure_network_public_ip_address" style="stroke:#1A83AF;stroke-width:2.0;"/><polygon fill="#1A83AF" points="920.34,106.32,930.1056,107.5982,925.134,104.8995,927.8327,99.9279,920.34,106.32" style="stroke:#1A83AF;stroke-width:2.0;"/></g><!--link azure_network_virtual_hub to azure_network_public_ip_address--><g id="link_azure_network_virtual_hub_azure_network_public_ip_address"><path codeLine="45" d="M1379.4,47.27 C1264.98,64.38 1104.974,88.3026 990.554,105.4126 " fill="none" id="azure_network_virtual_hub-to-azure_network_public_ip_address" style="stroke:#1A83AF;stroke-width:2.0;"/><polygon fill="#1A83AF" points="984.62,106.3,994.1126,108.925,989.565,105.5605,992.9295,101.013,984.62,106.3" style="stroke:#1A83AF;stroke-width:2.0;"/></g><!--SRC=[fP91Jy9048Nl_HMRS2QX4WKk9aX2z4ACU3EccNQdTDDsjvcTKi7utwMYPcqfOBZk-_BclPTDb4I1US4RaMCU8bdFfaeNG92BAP6fPYOp97fn3F5mr1JdHlD9O04vYdlCriWgWYRndAWerMYjk7AaEuZI5PbIoxqz4sYxar2pGyqoi7RAJ2ei6PqmSXAEuxX9DarxG-cFRh256P98tyXWC93-f8cSF7Mqzo-nL5iKlZlQmZ2sOhPEV557KzQ44x9Lz4VlpFW8KYgz4jVEszC-4scaF-_B1AIfQZg6pBfdB2EXuKs1irOhd8nbF3e8FtJ1NbHF9s1R4WOQkJAK1Y5OLaO7YR4itZtluo0bfR51GRlUqHTTPA2xQGqSh82nWaqtL9HXfg905S5kBAg_y1beGHYhjsvohOXBo8Aa3FVGaRBzbvu_7G-dyzV-xQbitXbpNE3d3dQ1JMkd2xpS9Vzbyma0]--></g></svg>

<svg xmlns="http://www.w3.org/2000/svg" width="1652" height="152" viewBox="0 0 1652 152"><rect width="282" height="39.789" x="7" y="7" fill="#3D176E" rx="2.5" ry="2.5" style="stroke:#000d19;stroke-width:.5"/><circle cx="22" cy="26.895" r="11" fill="#ADD1B2" style="stroke:#181818;stroke-width:1"/><path d="M24.969 32.535q-.578.297-1.219.438-.64.156-1.344.156-2.5 0-3.828-1.64-1.312-1.657-1.312-4.782t1.312-4.781q1.328-1.656 3.828-1.656.703 0 1.344.156.656.156 1.219.453v2.719q-.625-.578-1.219-.844-.594-.281-1.219-.281-1.343 0-2.031 1.078-.687 1.062-.687 3.156t.687 3.172q.688 1.062 2.031 1.062.625 0 1.219-.265.594-.281 1.219-.86z"/><text x="41" y="32.78" fill="#D9B8FF" font-family="Helvetica" font-size="17" textLength="240">azure_network_bastion_host</text><rect width="353" height="39.789" x="324.5" y="7" fill="#3D176E" rx="2.5" ry="2.5" style="stroke:#000d19;stroke-width:.5"/><circle cx="339.5" cy="26.895" r="11" fill="#ADD1B2" style="stroke:#181818;stroke-width:1"/><path d="M342.469 32.535q-.578.297-1.219.438-.64.156-1.344.156-2.5 0-3.828-1.64-1.312-1.657-1.312-4.782t1.312-4.781q1.328-1.656 3.828-1.656.703 0 1.344.156.656.156 1.219.453v2.719q-.625-.578-1.219-.844-.594-.281-1.219-.281-1.344 0-2.031 1.078-.687 1.062-.687 3.156t.687 3.172q.688 1.062 2.031 1.062.625 0 1.219-.265.594-.281 1.219-.86z"/><text x="358.5" y="32.78" fill="#D9B8FF" font-family="Helvetica" font-size="17" textLength="311">azure_network_ddos_protection_plan</text><rect width="285" height="39.789" x="712.5" y="7" fill="#3D176E" rx="2.5" ry="2.5" style="stroke:#000d19;stroke-width:.5"/><circle cx="727.5" cy="26.895" r="11" fill="#ADD1B2" style="stroke:#181818;stroke-width:1"/><path d="M730.469 32.535q-.578.297-1.219.438-.64.156-1.344.156-2.5 0-3.828-1.64-1.312-1.657-1.312-4.782t1.312-4.781q1.328-1.656 3.828-1.656.703 0 1.344.156.656.156 1.219.453v2.719q-.625-.578-1.219-.844-.594-.281-1.219-.281-1.343 0-2.031 1.078-.687 1.062-.687 3.156t.687 3.172q.688 1.062 2.031 1.062.625 0 1.219-.265.594-.281 1.219-.86z"/><text x="746.5" y="32.78" fill="#D9B8FF" font-family="Helvetica" font-size="17" textLength="243">azure_network_nat_gateway</text><rect width="321" height="39.789" x="694.5" y="106.79" fill="#3D176E" rx="2.5" ry="2.5" style="stroke:#000d19;stroke-width:.5"/><circle cx="709.5" cy="126.684" r="11" fill="#ADD1B2" style="stroke:#181818;stroke-width:1"/><path d="M712.469 132.325q-.578.297-1.219.438-.64.156-1.344.156-2.5 0-3.828-1.64-1.312-1.657-1.312-4.782t1.312-4.781q1.328-1.656 3.828-1.656.703 0 1.344.156.656.156 1.219.453v2.719q-.625-.579-1.219-.844-.594-.281-1.219-.281-1.343 0-2.031 1.078-.687 1.062-.687 3.156t.687 3.172q.688 1.062 2.031 1.062.625 0 1.219-.265.594-.281 1.219-.86z"/><text x="728.5" y="132.57" fill="#D9B8FF" font-family="Helvetica" font-size="17" textLength="279">azure_network_public_ip_address</text><rect width="306" height="39.789" x="1032" y="7" fill="#3D176E" rx="2.5" ry="2.5" style="stroke:#000d19;stroke-width:.5"/><circle cx="1047" cy="26.895" r="11" fill="#ADD1B2" style="stroke:#181818;stroke-width:1"/><path d="M1049.969 32.535q-.578.297-1.219.438-.64.156-1.344.156-2.5 0-3.828-1.64-1.312-1.657-1.312-4.782t1.312-4.781q1.328-1.656 3.828-1.656.703 0 1.344.156.656.156 1.219.453v2.719q-.625-.578-1.219-.844-.594-.281-1.219-.281-1.343 0-2.031 1.078-.687 1.062-.687 3.156t.687 3.172q.688 1.062 2.031 1.062.625 0 1.219-.265.594-.281 1.219-.86z"/><text x="1066" y="32.78" fill="#D9B8FF" font-family="Helvetica" font-size="17" textLength="264">azure_network_public_ip_prefix</text><rect width="272" height="39.789" x="1373" y="7" fill="#3D176E" rx="2.5" ry="2.5" style="stroke:#000d19;stroke-width:.5"/><circle cx="1388" cy="26.895" r="11" fill="#ADD1B2" style="stroke:#181818;stroke-width:1"/><path d="M1390.969 32.535q-.578.297-1.219.438-.64.156-1.344.156-2.5 0-3.828-1.64-1.312-1.657-1.312-4.782t1.312-4.781q1.328-1.656 3.828-1.656.703 0 1.344.156.656.156 1.219.453v2.719q-.625-.578-1.219-.844-.594-.281-1.219-.281-1.343 0-2.031 1.078-.687 1.062-.687 3.156t.687 3.172q.688 1.062 2.031 1.062.625 0 1.219-.265.594-.281 1.219-.86z"/><text x="1407" y="32.78" fill="#D9B8FF" font-family="Helvetica" font-size="17" textLength="230">azure_network_virtual_hub</text><path fill="none" d="M288.1 47.27c123.69 17.11 297.137 41.098 420.827 58.208" style="stroke:#1a83af;stroke-width:2"/><path fill="#1A83AF" d="m714.87 106.3-8.367-5.195 3.414 4.51-4.51 3.414z" style="stroke:#1a83af;stroke-width:2"/><path fill="none" d="M570.94 47.22c61.96 17.11 146.177 40.372 208.177 57.502" style="stroke:#1a83af;stroke-width:2"/><path fill="#1A83AF" d="m784.9 106.32-7.61-6.252 2.79 4.92-4.92 2.79z" style="stroke:#1a83af;stroke-width:2"/><path fill="none" d="M855 47.22v53.19" style="stroke:#1a83af;stroke-width:2"/><path fill="#1A83AF" d="m855 106.41 4-9-4 4-4-4z" style="stroke:#1a83af;stroke-width:2"/><path fill="none" d="M1119.8 47.22c-57.76 17.11-135.897 40.265-193.707 57.395" style="stroke:#1a83af;stroke-width:2"/><path fill="#1A83AF" d="m920.34 106.32 9.766 1.278-4.972-2.698 2.699-4.972z" style="stroke:#1a83af;stroke-width:2"/><path fill="none" d="M1379.4 47.27c-114.42 17.11-274.426 41.033-388.846 58.143" style="stroke:#1a83af;stroke-width:2"/><path fill="#1A83AF" d="m984.62 106.3 9.493 2.625-4.548-3.364 3.364-4.548z" style="stroke:#1a83af;stroke-width:2"/></svg>
